app/assets/images/play_light.svg

<?xml version="1.0" encoding="UTF-8" standalone="no"?>
<svg width="14px" height="11px" viewBox="0 0 14 11" version="1.1" xmlns="http://www.w3.org/2000/svg" xmlns:xlink="http://www.w3.org/1999/xlink" xmlns:sketch="http://www.bohemiancoding.com/sketch/ns">
    <!-- Generator: Sketch 3.4.1 (15681) - http://www.bohemiancoding.com/sketch -->
    <title>play</title>
    <desc>Created with Sketch.</desc>
    <defs></defs>
    <g id="Slides" stroke="none" stroke-width="1" fill="none" fill-rule="evenodd" sketch:type="MSPage">
        <g id="Slides::Index" sketch:type="MSArtboardGroup" transform="translate(-667.000000, -260.000000)" fill="#FFFFFF">
            <g id="play" sketch:type="MSLayerGroup" transform="translate(667.000000, 260.000000)">
                <g id="Group" sketch:type="MSShapeGroup">
                    <path d="M13.4146797,0.459880208 C11.4509609,0.164111979 9.28123438,0 7.00002734,0 C4.71873828,0 2.54906641,0.164111979 0.585265625,0.459880208 C0.208878906,2.00283073 0,3.70760156 0,5.5 C0,7.29236979 0.208878906,8.99716927 0.585265625,10.5400911 C2.54906641,10.835888 4.71876562,11 7.00002734,11 C9.28123438,11 11.4509336,10.835888 13.4146797,10.5400911 C13.7910937,8.99716927 14,7.29236979 14,5.5 C14,3.70760156 13.7910937,2.00283073 13.4146797,0.459880208 L13.4146797,0.459880208 Z M5.25002734,8.25 L5.25002734,2.75 L9.62502734,5.5 L5.25002734,8.25 L5.25002734,8.25 Z" id="Shape"></path>
                </g>
            </g>
        </g>
    </g>
</svg>

<svg height="11" viewBox="0 0 14 11" width="14" xmlns="http://www.w3.org/2000/svg"><path d="m13.4146797.45988021c-1.9637188-.29576823-4.13344532-.45988021-6.41465236-.45988021-2.28128906 0-4.45096093.16411198-6.41476171.45988021-.37638672 1.54295052-.58526563 3.24772135-.58526563 5.04011979 0 1.79236979.20887891 3.49716927.58526563 5.0400911 1.96380078.2957969 4.13349999.4599089 6.41476171.4599089 2.28120704 0 4.45090626-.164112 6.41465236-.4599089.376414-1.54292183.5853203-3.24772131.5853203-5.0400911 0-1.79239844-.2089063-3.49716927-.5853203-5.04011979zm-8.16465236 7.79011979v-5.5l4.375 2.75z" fill="#fff" fill-rule="evenodd" transform=""/></svg>
